X: 190
T:De profundis clamavi / A custodia
N: Derived from Jos1514-De_profundis_clamavi.krn
C: Josquin des Prez
%%abc-version 2.0
%%abcx-abcm2ps-target-version 5.9.1 (29 Sep 2008)
%%abc-creator hum2abc beta
%%abcx-conversion-date 2019/02/12 16:15:47
%%abc-edited-by Jesse Rodin
%%abc-edited-by Will Watson 07/05/2011
%%abcx-initial-encoding-date 2011/07/05/
%%humdrum-veritas 2510895049
%%humdrum-veritas-data 1335457749
%%linebreak <none>
%%barnumbers 0
L: 1/4
M: 2/1
Q: 1/2=120
V: 1 clef=treble
V: 2 clef=treble
V: 3 clef=treble-8
V: 4 clef=treble-8
V: 5 clef=bass
K: F
[V:1] z8 | 
[V:2] z8 | 
[V:3] z8 | 
[V:4] F6G2 | 
[V:5] z4F,4- | 
[V:1] z8 | 
[V:2] z8 | 
[V:3] z8 | 
[V:4] A2B2c2d2 | 
[V:5] F,2G,2A,2B,2 | 
[V:1] z8 | 
[V:2] z8 | 
[V:3] z8 | 
[V:4] e2f4e2 | 
[V:5] C2A,2G,4 | 
[V:1] z8 | 
[V:2] z8 | 
[V:3] F6G2 | 
[V:4] f4F4- | 
[V:5] F,4D,4 | 
[V:1] z8 | 
[V:2] z8 | 
[V:3] A2B2c2d2 | 
[V:4] F2G2A2B2 | 
[V:5] F,8 | 
[V:1] z8 | 
[V:2] z8 | 
[V:3] e2f4e2 | 
[V:4] c2A2G4 | 
[V:5] C,8 | 
[V:1] F6G2 | 
[V:2] z4F4- | 
[V:3] fedcd4 | 
[V:4] F8 | 
[V:5] z4D,4 | 
[V:1] A2B2c2d2 | 
[V:2] F2G2A2B2 | 
[V:3] c8 | 
[V:4] z8 | 
[V:5] F,8 | 
[V:1] e2f4e2 | 
[V:2] c2A2G4 | 
[V:3] z4z2c2 | 
[V:4] c4c4 | 
[V:5] C,4z2C,2 | 
[V:1] f8 | 
[V:2] F4B4 | 
[V:3] A2d2z2d2- | 
[V:4] F4z2F2 | 
[V:5] D,4B,,3C, | 
[V:1] z4f4 | 
[V:2] A8 | 
[V:3] d2d2c3d | 
[V:4] F3GAGAB | 
[V:5] D,C,D,E,F,4 | 
[V:1] e8 | 
[V:2] G8 | 
[V:3] edefg2e2 | 
[V:4] c8 | 
[V:5] C,4z2C,2 | 
[V:1] d8 | 
[V:2] z4B4- | 
[V:3] f3edcd2- | 
[V:4] F8- | 
[V:5] D,4B,,4- | 
[V:1] z4f4- | 
[V:2] B4A4 | 
[V:3] d2cBc2c2 | 
[V:4] F8 | 
[V:5] B,,4z4 | 
[V:1] f4e4 | 
[V:2] B3AGFG2 | 
[V:3] d4z4 | 
[V:4] B4c4 | 
[V:5] z4C,4 | 
[V:1] f3edcd2- | 
[V:2] F2A2B2B2 | 
[V:3] z2f2g4 | 
[V:4] A2d4B2 | 
[V:5] D,4G,4 | 
[V:1] dcc4=B2 | 
[V:2] A4z4 | 
[V:3] e2f2g2g2 | 
[V:4] c4d4 | 
[V:5] A,4G,4 | 
[V:1] c8 | 
[V:2] G4A2A2- | 
[V:3] e4f3f | 
[V:4] c8- | 
[V:5] C,4F,4- | 
[V:1] z4c4- | 
[V:2] A2A2A4- | 
[V:3] f2f2f2c2 | 
[V:4] c4z4 | 
[V:5] F,2F,2F,2F,2 | 
[V:1] c2c2c2c2 | 
[V:2] A2A2A4- | 
[V:3] z2f4f2 | 
[V:4] c6c2 | 
[V:5] F,6F,2 | 
[V:1] c6c2 | 
[V:2] A4G4 | 
[V:3] f4e4 | 
[V:4] c2c2c4- | 
[V:5] F,4C,4 | 
[V:1] c4G4 | 
[V:2] z2G3FGA | 
[V:3] e4z2e2 | 
[V:4] c2c2c4 | 
[V:5] z2C,3D,E,F, | 
[V:1] z2G3FGA | 
[V:2] B2c2G4- | 
[V:3] d2e6 | 
[V:4] G4z2G2- | 
[V:5] G,2C,3D,E,F, | 
[V:1] B4A2G2- | 
[V:2] G4z4 | 
[V:3] d3efce2 | 
[V:4] GABcdAc2 | 
[V:5] G,4F,2E,2 | 
[V:1] GFF4E2 | 
[V:2] z4G4 | 
[V:3] f2B2c4 | 
[V:4] BAGFG4 | 
[V:5] D,4C,4 | 
[V:1] F8 | 
[V:2] A6GF | 
[V:3] A3G/F/c4- | 
[V:4] F4z2A2- | 
[V:5] F,8- | 
[V:1] z4c4 | 
[V:2] c3BAGF2- | 
[V:3] c8 | 
[V:4] A2GFA3B | 
[V:5] F,8 | 
[V:1] G4A4 | 
[V:2] F2E2F2c2- | 
[V:3] z4f4 | 
[V:4] c4z4 | 
[V:5] z8 | 
[V:1] G2c4B2 | 
[V:2] c2G2z2G2- | 
[V:3] c4d4 | 
[V:4] c4G4 | 
[V:5] z8 | 
[V:1] c8 | 
[V:2] G2F2G4 | 
[V:3] c2f4e2 | 
[V:4] A4G2c2- | 
[V:5] F,4C,4 | 
[V:1] z4c4 | 
[V:2] F2f2e2AB | 
[V:3] f4z4 | 
[V:4] c2B2c4- | 
[V:5] D,4C,2F,2- | 
[V:1] G4A4 | 
[V:2] cde2c2c2- | 
[V:3] z4f4 | 
[V:4] c4z4 | 
[V:5] F,2E,2F,4 | 
[V:1] G2c4B2 | 
[V:2] c2G4G2- | 
[V:3] c4d4 | 
[V:4] c4G4 | 
[V:5] z8 | 
[V:1] c8 | 
[V:2] G2F2G4 | 
[V:3] c2f4e2 | 
[V:4] A4G2c2- | 
[V:5] F,4C,4 | 
[V:1] z8 | 
[V:2] F4z4 | 
[V:3] f4e2c2 | 
[V:4] c2B2c4 | 
[V:5] D,4C,2F,2- | 
[V:1] z4z2c2 | 
[V:2] z2G2A4 | 
[V:3] c4c2f2- | 
[V:4] z4z2F2 | 
[V:5] F,2E,2F,4 | 
[V:1] d4B4 | 
[V:2] F4G4 | 
[V:3] f2d4e2- | 
[V:4] B4G4 | 
[V:5] z8 | 
[V:1] c4A2d2- | 
[V:2] E2A4F2 | 
[V:3] e2c2f4 | 
[V:4] A4F2B2- | 
[V:5] z8 | 
[V:1] d2B2c4 | 
[V:2] G4E2A2- | 
[V:3] d2e4c2 | 
[V:4] B2G2A4 | 
[V:5] z8 | 
[V:1] A2d4B2 | 
[V:2] A2F2G4 | 
[V:3] f4d4 | 
[V:4] F2B4G2 | 
[V:5] z8 | 
[V:1] c2A2G4 | 
[V:2] E2F4E2 | 
[V:3] z4z2g2 | 
[V:4] A2F2c4 | 
[V:5] z4z2C,2 | 
[V:1] F2c2f4 | 
[V:2] F4z2A2 | 
[V:3] a4f4 | 
[V:4] z2c2d4 | 
[V:5] F,4D,4 | 
[V:1] d4e2c2 | 
[V:2] B4G2A2 | 
[V:3] g4e2a2- | 
[V:4] B4c4 | 
[V:5] G,4C,2F,2- | 
[V:1] f4d4 | 
[V:2] F2A2B4 | 
[V:3] a2f2g4 | 
[V:4] A2d4B2 | 
[V:5] F,2D,2G,4 | 
[V:1] e2c2f3e | 
[V:2] G2A2F2A2 | 
[V:3] e2a4f2 | 
[V:4] c4A2d2 | 
[V:5] C,2F,4D,2 | 
[V:1] d2c2d4 | 
[V:2] B2G2G4- | 
[V:3] g2e2d4 | 
[V:4] B2c4=B2 | 
[V:5] G,2C,2G,4 | 
[V:1] e4z2c2- | 
[V:2] G4z4 | 
[V:3] cdefg2e2 | 
[V:4] c8 | 
[V:5] C,8 | 
[V:1] c2d2e4 | 
[V:2] F4G2A2- | 
[V:3] a4z4 | 
[V:4] F4z4 | 
[V:5] z8 | 
[V:1] c2f4e2 | 
[V:2] A2F2G4 | 
[V:3] z4z2g2 | 
[V:4] z4z2c2- | 
[V:5] z8 | 
[V:1] f4z4 | 
[V:2] F4z4 | 
[V:3] a4g2e2 | 
[V:4] c2d2e4 | 
[V:5] F,4G,2A,2- | 
[V:1] z8 | 
[V:2] z8 | 
[V:3] a4g4 | 
[V:4] c2f4e2 | 
[V:5] A,2F,2G,4 | 
[V:1] c2d2e3e | 
[V:2] z2F2G2A2- | 
[V:3] a4z4 | 
[V:4] f4z4 | 
[V:5] F,4z4 | 
[V:1] c2f4e2 | 
[V:2] AAF2G2G2 | 
[V:3] z4z2g2 | 
[V:4] z4z2c2- | 
[V:5] z8 | 
[V:1] f4z4 | 
[V:2] F4z4 | 
[V:3] a4g2e2 | 
[V:4] c2d2e3e | 
[V:5] F,4G,2A,2- | 
[V:1] z8 | 
[V:2] z8 | 
[V:3] a4g2g2 | 
[V:4] c2f4e2 | 
[V:5] A,A,F,2G,2G,2 | 
[V:1] z4c4- | 
[V:2] F6F2 | 
[V:3] c8- | 
[V:4] f4z4 | 
[V:5] F,6E,D, | 
[V:1] c2c2c2c2 | 
[V:2] E4F4 | 
[V:3] c8 | 
[V:4] z8 | 
[V:5] C,2C2F,2A,2 | 
[V:1] B4c2d2- | 
[V:2] G4E2F2- | 
[V:3] d4z4 | 
[V:4] z8 | 
[V:5] G,4z4 | 
[V:1] dcBAB4 | 
[V:2] FEDCD4 | 
[V:3] z8 | 
[V:4] z4f4- | 
[V:5] B,6B,2 | 
[V:1] c4z4 | 
[V:2] C2c2B4 | 
[V:3] z2f2d2d2 | 
[V:4] f2f2f2f2 | 
[V:5] A,4B,4 | 
[V:1] z8 | 
[V:2] G4z4 | 
[V:3] e2c4d2- | 
[V:4] e4f2g2- | 
[V:5] C4A,2B,2- | 
[V:1] z8 | 
[V:2] B6B2 | 
[V:3] dcBAB4 | 
[V:4] gff4e2 | 
[V:5] B,A,G,F,G,4 | 
[V:1] z2f2d2d2 | 
[V:2] A4B4 | 
[V:3] c4z4 | 
[V:4] f2f2g4 | 
[V:5] F,4z4 | 
[V:1] e2c4d2- | 
[V:2] c4A2B2- | 
[V:3] z8 | 
[V:4] e2f3edc | 
[V:5] z8 | 
[V:1] dcf4e2 | 
[V:2] BAGFG4 | 
[V:3] z8 | 
[V:4] d4c4 | 
[V:5] z8 | 
[V:1] f8 | 
[V:2] F4z4 | 
[V:3] z2f4f2 | 
[V:4] z2d4c2 | 
[V:5] z2B,4A,2 | 
[V:1] z4z2c2- | 
[V:2] z4z2A2- | 
[V:3] f2g2a2f2- | 
[V:4] d2e2f4 | 
[V:5] B,2G,2F,4 | 
[V:1] c2c2c2d2 | 
[V:2] A2G2A2B2 | 
[V:3] f2e2f2d2 | 
[V:4] z8 | 
[V:5] z8 | 
[V:1] e4z4 | 
[V:2] c4z4 | 
[V:3] c2e2e2d2 | 
[V:4] z4z2g2 | 
[V:5] z2C2C2B,2 | 
[V:1] z4z2c2 | 
[V:2] z2c2B2A2 | 
[V:3] e2c2d2c2 | 
[V:4] g2f2g2e2 | 
[V:5] C2A,2G,2A,2 | 
[V:1] c2B2c2A2 | 
[V:2] A2GFE2F2 | 
[V:3] A2B2G2F2 | 
[V:4] d4c4 | 
[V:5] F,2G,2C,2F,2 | 
[V:1] G4F4 | 
[V:2] D2E2C2D2 | 
[V:3] G4A2F2 | 
[V:4] z2c2c2B2 | 
[V:5] F,2E,2F,2D,2 | 
[V:1] z2A2B2G2 | 
[V:2] E2F2z2c2 | 
[V:3] z2f2f2e2 | 
[V:4] c2A2G4 | 
[V:5] C,2D,2B,,2C,2 | 
[V:1] A2G2G2F2 | 
[V:2] c2B2c2A2 | 
[V:3] f2d2c2f2- | 
[V:4] F2B2G2A2 | 
[V:5] F,2G,2E,2F,2 | 
[V:1] G4z2A2 | 
[V:2] G4F4- | 
[V:3] f2e2d2c2 | 
[V:4] d2c2F4- | 
[V:5] B,,2C,2z2F,2 | 
[V:1] A2A2G3A | 
[V:2] F4z4 | 
[V:3] z2f2d2d2 | 
[V:4] F4z2B2 | 
[V:5] D,2D,2G,2G,2 | 
[V:1] BcdBc3B | 
[V:2] z2B2G2G2 | 
[V:3] g2g2z2g2 | 
[V:4] G2G2c2c2 | 
[V:5] G,4C,4 | 
[V:1] A2G2F4- | 
[V:2] c2c2c4 | 
[V:3] e2e2a2a2 | 
[V:4] c4F4 | 
[V:5] z2C2A,2A,2 | 
[V:1] F4z2f2 | 
[V:2] F2A2A2A2 | 
[V:3] a3gfef2 | 
[V:4] z2f2d2d2 | 
[V:5] D2D2D4 | 
[V:1] d2d2g2g2 | 
[V:2] B2B2B4 | 
[V:3] g2d2d2d2 | 
[V:4] g2g2g4 | 
[V:5] G,2B,2G,2G,2 | 
[V:1] g4c4 | 
[V:2] c4z4 | 
[V:3] e2e2g4 | 
[V:4] c3defge | 
[V:5] C2C2C4 | 
[V:1] z2c2d3d | 
[V:2] z2F2B3B | 
[V:3] a4z4 | 
[V:4] f4z4 | 
[V:5] F,4z4 | 
[V:1] c2f2d2e2 | 
[V:2] A2F2G2G2 | 
[V:3] z8 | 
[V:4] z8 | 
[V:5] z8 | 
[V:1] f8 | 
[V:2] F4z4 | 
[V:3] z2a2f3d | 
[V:4] z2c2d3d | 
[V:5] z2F,2B,3B, | 
[V:1] z8 | 
[V:2] z2F2B3B | 
[V:3] e2a2g2g2 | 
[V:4] c2f2d2e2 | 
[V:5] A,2F,2G,2G,2 | 
[V:1] z2f2d2e2 | 
[V:2] A2F2G2G2 | 
[V:3] c4z2c2 | 
[V:4] f4z4 | 
[V:5] F,4z2C,2 | 
[V:1] f4z4 | 
[V:2] F4z4 | 
[V:3] A2A2G2c2 | 
[V:4] z4z2c2 | 
[V:5] F,3F,E,2C,2 | 
[V:1] z4z2e2 | 
[V:2] z4z2c2 | 
[V:3] A2B2c4 | 
[V:4] f3fe2c2 | 
[V:5] D,2D,2C,4 | 
[V:1] f2d2e4- | 
[V:2] A2B2c4 | 
[V:3] z8 | 
[V:4] d2d2c4- | 
[V:5] z8 | 
[V:1] e4c4 | 
[V:2] z2G2A3A | 
[V:3] e4f4- | 
[V:4] c4A4 | 
[V:5] z2C,2F,3F, | 
[V:1] d6d2 | 
[V:2] F2f4f2 | 
[V:3] f2f2f4 | 
[V:4] B6B2 | 
[V:5] B,,4B,,4- | 
[V:1] d4d4- | 
[V:2] f4f3e | 
[V:3] f6f2 | 
[V:4] B4B4- | 
[V:5] B,,2B,,2B,,4 | 
[V:1] d2d2d4 | 
[V:2] dcB3AGF | 
[V:3] f4g4- | 
[V:4] B4B4 | 
[V:5] B,3A,G,F,G,2 | 
[V:1] e8 | 
[V:2] E3FG2G2 | 
[V:3] g4e4 | 
[V:4] c8 | 
[V:5] C,4z2C2 | 
[V:1] c4c4 | 
[V:2] z2A2A4 | 
[V:3] e4f4 | 
[V:4] A4A4 | 
[V:5] C4F,4 | 
[V:1] d4d4 | 
[V:2] F2B3AGF | 
[V:3] f4g4- | 
[V:4] B4B4 | 
[V:5] B,3A,G,F,G,2 | 
[V:1] e8 | 
[V:2] E3FG4 | 
[V:3] g4e4- | 
[V:4] c8 | 
[V:5] C,8 | 
[V:1] c8 | 
[V:2] A4z2F2 | 
[V:3] e4z4 | 
[V:4] A8 | 
[V:5] z4F,4 | 
[V:1] z4c4 | 
[V:2] G4A4 | 
[V:3] e4f4 | 
[V:4] z4A4 | 
[V:5] C,4F,4 | 
[V:1] d4d4 | 
[V:2] F2f4f2 | 
[V:3] f4f4- | 
[V:4] B4B4 | 
[V:5] B,,6B,,2 | 
[V:1] d6d2 | 
[V:2] f2f3edc | 
[V:3] f2f2f4 | 
[V:4] B6B2 | 
[V:5] B,,4B,3A, | 
[V:1] d4e4- | 
[V:2] BAGFE3F | 
[V:3] g8 | 
[V:4] B4c4- | 
[V:5] G,F,G,2C,4- | 
[V:1] e4c4- | 
[V:2] G2E2z2e2 | 
[V:3] e8 | 
[V:4] c4A4- | 
[V:5] C,4z2C2 | 
[V:1] c4c4 | 
[V:2] edcBA2A2 | 
[V:3] e4f4 | 
[V:4] A4A4 | 
[V:5] CB,A,G,F,4 | 
[V:1] d4d4 | 
[V:2] D2d2B2B2 | 
[V:3] f4g4- | 
[V:4] B4B4 | 
[V:5] B,,2B,A,G,F,G,2 | 
[V:1] e8- | 
[V:2] G2G2E2C2 | 
[V:3] g8- | 
[V:4] c8- | 
[V:5] C,8- | 
[V:1] e8 ||  
[V:2] c8 ||  
[V:3] g8 ||  
[V:4] c8 ||  
[V:5] C,8 ||  
[V:1]  [K:F] [M:2/1]z8 | 
[V:2]  [K:F] [M:2/1]z8 | 
[V:3]  [K:F] [M:2/1]z8 | 
[V:4]  [K:F] [M:2/1]g6f2 | 
[V:5]  [K:F] [M:2/1]z4C4- | 
[V:1] z8 | 
[V:2] z8 | 
[V:3] z8 | 
[V:4] e2d2c4 | 
[V:5] C2B,2A,2G,2 | 
[V:1] z8 | 
[V:2] z8 | 
[V:3] z8 | 
[V:4] f6e2 | 
[V:5] F,4B,4- | 
[V:1] z8 | 
[V:2] z8 | 
[V:3] z4z2f2 | 
[V:4] d2c2B2A2 | 
[V:5] B,2A,2G,2F,2 | 
[V:1] z8 | 
[V:2] z8 | 
[V:3] g2a4gf | 
[V:4] G2c4=B2 | 
[V:5] E,2F,2D,4 | 
[V:1] g6f2 | 
[V:2] z4c4- | 
[V:3] e8 | 
[V:4] c8- | 
[V:5] C,8- | 
[V:1] e2d2c4 | 
[V:2] c2B2A2G2 | 
[V:3] e8 | 
[V:4] c8 | 
[V:5] C,8 | 
[V:1] f6e2 | 
[V:2] F4B4- | 
[V:3] z8 | 
[V:4] z8 | 
[V:5] z8 | 
[V:1] d2c2B2A2 | 
[V:2] B2A2G2F2 | 
[V:3] z4z2f2 | 
[V:4] z8 | 
[V:5] z8 | 
[V:1] G2c4=B2 | 
[V:2] E2F2D4 | 
[V:3] g2a2a2gf | 
[V:4] z8 | 
[V:5] z2F,2F,2G,2 | 
[V:1] c4z4 | 
[V:2] C4z4 | 
[V:3] e4a4 | 
[V:4] z2c2c2d2 | 
[V:5] A,4F,4 | 
[V:1] z8 | 
[V:2] z8 | 
[V:3] g4e2f2- | 
[V:4] e4c4 | 
[V:5] z2C4A,2 | 
[V:1] z8 | 
[V:2] z4z2c2- | 
[V:3] f2d2e4 | 
[V:4] z2g4e2 | 
[V:5] B,4G,2A,2- | 
[V:1] z8 | 
[V:2] c2A2B4 | 
[V:3] c2d4B2 | 
[V:4] f4d2e2- | 
[V:5] A,2F,2G,4 | 
[V:1] z8 | 
[V:2] G2A4F2 | 
[V:3] c4A2B2 | 
[V:4] e2c2d4 | 
[V:5] E,2F,4D,2 | 
[V:1] g3ef3d | 
[V:2] G3AF4 | 
[V:3] G2c2A2F2 | 
[V:4] c2c4=B2 | 
[V:5] E,2C,2D,4 | 
[V:1] e3cd4 | 
[V:2] z2c2A2B2 | 
[V:3] G2c4B2 | 
[V:4] c4z2g2 | 
[V:5] C,4z4 | 
[V:1] c2c4=B2 | 
[V:2] G2A2G4 | 
[V:3] c2A2B3G | 
[V:4] e2f2d4 | 
[V:5] z4G,4 | 
[V:1] c8- | 
[V:2] z2E3FG2 | 
[V:3] G4g4 | 
[V:4] c8 | 
[V:5] C,4E,2E,2 | 
[V:1] c8 | 
[V:2] A4G4 | 
[V:3] c4e2e2 | 
[V:4] z4c4 | 
[V:5] F,2F,2C,4 | 
[V:1] z4c4 | 
[V:2] z2A3Bc2 | 
[V:3] f2f2c2e2 | 
[V:4] F4A2A2 | 
[V:5] z8 | 
[V:1] F4A2A2 | 
[V:2] d2B2c2F2 | 
[V:3] d2d2c2c2 | 
[V:4] B2B2F2c2 | 
[V:5] z4F,4 | 
[V:1] B2B2F4 | 
[V:2] z2D3EF2 | 
[V:3] B4z4 | 
[V:4] d2B2A2A2 | 
[V:5] B,,4D,2D,2 | 
[V:1] z2G2F2D2 | 
[V:2] G2_E2D2d2 | 
[V:3] z2c2d2B2 | 
[V:4] G4z4 | 
[V:5] _E,2E,2B,,4 | 
[V:1] E2F2G2d2 | 
[V:2] c2A2B4 | 
[V:3] A2A2G2f2 | 
[V:4] z8 | 
[V:5] z4z2B,2 | 
[V:1] c2c2B2G2 | 
[V:2] G2A2z2B2 | 
[V:3] e2c2d2e2 | 
[V:4] z4z2B2 | 
[V:5] C2A,2G,2G,2 | 
[V:1] A4z2B2 | 
[V:2] A2F2G2G2 | 
[V:3] f4z2e2 | 
[V:4] c2A2G2G2 | 
[V:5] F,4z4 | 
[V:1] A2F2G2F2 | 
[V:2] A4z2A2 | 
[V:3] f2d2c2c2 | 
[V:4] F4z4 | 
[V:5] z4z2F,2 | 
[V:1] D2E2F4 | 
[V:2] B2G2F2D2 | 
[V:3] B2c2F4 | 
[V:4] z4z2B2 | 
[V:5] G,2E,2D,2D,2 | 
[V:1] z4G4 | 
[V:2] E2F4E2 | 
[V:3] G2c4c2 | 
[V:4] c2A2G2G2 | 
[V:5] C,8 | 
[V:1] A4A2A2- | 
[V:2] F8 | 
[V:3] c4z2f2 | 
[V:4] F8 | 
[V:5] z8 | 
[V:1] A2GFG2A2- | 
[V:2] z4z2c2 | 
[V:3] f4e2f2- | 
[V:4] z8 | 
[V:5] z8 | 
[V:1] AGc4=B2 | 
[V:2] c2F2G4 | 
[V:3] fedcd4 | 
[V:4] z4G4 | 
[V:5] z8 | 
[V:1] c8- | 
[V:2] E4A4 | 
[V:3] c8- | 
[V:4] A4A2A2- | 
[V:5] z4z2F,2 | 
[V:1] c8 | 
[V:2] F6F2 | 
[V:3] c8 | 
[V:4] A2GFG2A2- | 
[V:5] F,4E,2F,2- | 
[V:1] z8 | 
[V:2] F2F2F3G | 
[V:3] z4d4 | 
[V:4] AGc4=B2 | 
[V:5] F,E,D,C,D,4 | 
[V:1] z8 | 
[V:2] A2G2G4- | 
[V:3] e4e2e2- | 
[V:4] c4z2c2 | 
[V:5] C,8- | 
[V:1] z8 | 
[V:2] G8 | 
[V:3] e2dcd2e2- | 
[V:4] c4B2c2- | 
[V:5] C,4z4 | 
[V:1] z4z2c2- | 
[V:2] z8 | 
[V:3] edg4^f2 | 
[V:4] cBAGA4 | 
[V:5] z8 | 
[V:1] c2B2A4 | 
[V:2] z8 | 
[V:3] g4z2f2- | 
[V:4] G4z4 | 
[V:5] z8 | 
[V:1] G4z2D2 | 
[V:2] z2c4B2 | 
[V:3] f2e2d4 | 
[V:4] z8 | 
[V:5] z8 | 
[V:1] E2F2G3E | 
[V:2] A4G4 | 
[V:3] c4z2G2 | 
[V:4] z4z2c2- | 
[V:5] z2F,4E,2 | 
[V:1] F4z4 | 
[V:2] z2D2E3F | 
[V:3] A2B2c2c2 | 
[V:4] c2B2A4 | 
[V:5] D,4C,4 | 
[V:1] z2G2A2B2 | 
[V:2] G4z2G2 | 
[V:3] d2e2f2d2 | 
[V:4] G4z2G2 | 
[V:5] z8 | 
[V:1] c8 | 
[V:2] E2A2G2G2 | 
[V:3] c2f2e2e2 | 
[V:4] A3Bc4 | 
[V:5] z8 | 
[V:1] z2G2E2A2 | 
[V:2] A2B2c4- | 
[V:3] f2d2c4 | 
[V:4] z2G2A3B | 
[V:5] z8 | 
[V:1] G2E2F2G2 | 
[V:2] c4z4 | 
[V:3] z2e2d2G2 | 
[V:4] c2c2B2B2 | 
[V:5] z2C,2D,2E,2 | 
[V:1] A8- | 
[V:2] z8 | 
[V:3] c4z2c2 | 
[V:4] A8- | 
[V:5] F,8- | 
[V:1] A8 | 
[V:2] z2c2d2c2 | 
[V:3] d2c2z2f2 | 
[V:4] A8 | 
[V:5] F,8 | 
[V:1] z8 | 
[V:2] e2d2c2e2 | 
[V:3] g2f2a2g2 | 
[V:4] z8 | 
[V:5] z8 | 
[V:1] z2c2d2c2 | 
[V:2] dcf4e2 | 
[V:3] f2a2g4 | 
[V:4] z4z2c2 | 
[V:5] z8 | 
[V:1] A2A2G2A2- | 
[V:2] f4z4 | 
[V:3] f4z4 | 
[V:4] d2c2e2d2 | 
[V:5] z2F,2G,2F,2 | 
[V:1] AFG2A4 | 
[V:2] z4F4 | 
[V:3] z8 | 
[V:4] c2e2dcf2- | 
[V:5] A,2G,2F,2A,2 | 
[V:1] z8 | 
[V:2] G2G2A4 | 
[V:3] B4c2c2 | 
[V:4] f2e2f4 | 
[V:5] G,4F,4 | 
[V:1] F4G2G2 | 
[V:2] z8 | 
[V:3] d2f4e2 | 
[V:4] z4B4 | 
[V:5] B,4G,2G,2 | 
[V:1] A4z4 | 
[V:2] z2F2F2F2 | 
[V:3] f4z2B2 | 
[V:4] c2c2d2f2- | 
[V:5] F,2F,2B,2B,2 | 
[V:1] z4z2F2 | 
[V:2] G2G2A2c2 | 
[V:3] B2B2c2c2 | 
[V:4] f2e2f4 | 
[V:5] G,2G,2F,2F,2 | 
[V:1] F2F2G2G2 | 
[V:2] B2B2B4 | 
[V:3] d2f4e2 | 
[V:4] z2B2B2B2 | 
[V:5] B,2B,2G,2G,2 | 
[V:1] A2c4B2 | 
[V:2] A2F2G4 | 
[V:3] f2F2B3G | 
[V:4] c2c2d4 | 
[V:5] F,2A,2G,4 | 
[V:1] c3BAGA2- | 
[V:2] E4z2F2 | 
[V:3] A2G2A2c2 | 
[V:4] c2c3BAG | 
[V:5] z2C,2F,2F,2 | 
[V:1] AGF4E2 | 
[V:2] F2F2G2G2 | 
[V:3] d2A2c2G2 | 
[V:4] F4z2c2 | 
[V:5] D,2D,2C,4 | 
[V:1] F4G4 | 
[V:2] A2c4B2 | 
[V:3] z2F2B3G | 
[V:4] c2c2d2d2 | 
[V:5] F,2A,2G,4 | 
[V:1] E4F4 | 
[V:2] c3BAGA2- | 
[V:3] A2G2A2c2 | 
[V:4] c2c3BAG | 
[V:5] z2C,2F,2F,2 | 
[V:1] z4G4 | 
[V:2] AGF4E2 | 
[V:3] d2A2c4- | 
[V:4] F4G4 | 
[V:5] D,2D,2C,4 | 
[V:1] A4B4 | 
[V:2] F8- | 
[V:3] c4d4 | 
[V:4] F8- | 
[V:5] z2F,2B,,C,D,E, | 
[V:1] A8 |]  
[V:2] F8 |]  
[V:3] c8 |]  
[V:4] F8 |]  
[V:5] F,8 |]  



